assets/img/twitter.svg

<svg width="32" height="32" viewBox="0 0 32 32" fill="none" xmlns="http://www.w3.org/2000/svg">
  <path d="M31.0934 8.58691C31.1883 8.50805 31.2594 8.40441 31.2989 8.28752C31.3384 8.17064 31.3446 8.04509 31.317 7.92486C31.2894 7.80463 31.2289 7.69442 31.1423 7.6065C31.0558 7.51859 30.9465 7.45642 30.8267 7.42691L29.7734 7.16024C29.6776 7.13626 29.5884 7.09131 29.5121 7.02863C29.4358 6.96596 29.3744 6.88712 29.3323 6.79781C29.2902 6.70851 29.2685 6.61097 29.2687 6.51224C29.2688 6.4135 29.291 6.31605 29.3334 6.22691L29.9201 5.04024C29.9755 4.92525 29.9967 4.79677 29.9813 4.67006C29.9658 4.54335 29.9143 4.42374 29.8329 4.32545C29.7514 4.22716 29.6435 4.15431 29.5219 4.11557C29.4002 4.07683 29.27 4.07383 29.1467 4.10691L26.4801 4.85357C26.3807 4.88255 26.276 4.888 26.1742 4.86949C26.0723 4.85097 25.9762 4.80901 25.8934 4.74691C24.7394 3.88143 23.3359 3.41357 21.8934 3.41357C20.1253 3.41357 18.4296 4.11595 17.1794 5.3662C15.9291 6.61644 15.2267 8.31213 15.2267 10.0802V10.5602C15.2273 10.6421 15.1978 10.7214 15.1437 10.7829C15.0896 10.8443 15.0147 10.8837 14.9334 10.8936C11.1867 11.3336 7.60008 9.42691 3.73341 4.97357C3.64941 4.88094 3.5415 4.81325 3.42153 4.77797C3.30156 4.74268 3.17419 4.74116 3.05341 4.77357C2.9446 4.82359 2.85128 4.90198 2.78324 5.00052C2.7152 5.09906 2.67496 5.21411 2.66674 5.33357C2.13269 7.52736 2.34861 9.83681 3.28008 11.8936C3.30764 11.9481 3.31967 12.0092 3.31485 12.0701C3.31004 12.1311 3.28857 12.1895 3.25278 12.239C3.217 12.2886 3.16828 12.3274 3.11195 12.3511C3.05563 12.3748 2.99386 12.3826 2.93341 12.3736L1.44007 12.0802C1.33402 12.0632 1.22542 12.072 1.12352 12.106C1.02161 12.1399 0.92942 12.198 0.854788 12.2752C0.780157 12.3525 0.725296 12.4466 0.694876 12.5497C0.664456 12.6527 0.659378 12.7615 0.680075 12.8669C0.795193 13.8902 1.13897 14.8744 1.68597 15.7469C2.23296 16.6193 2.96916 17.3575 3.84008 17.9069C3.89643 17.9342 3.94396 17.9768 3.97722 18.0299C4.01047 18.0829 4.02811 18.1443 4.02811 18.2069C4.02811 18.2695 4.01047 18.3309 3.97722 18.3839C3.94396 18.437 3.89643 18.4796 3.84008 18.5069L3.13341 18.7869C3.04759 18.8213 2.96986 18.8732 2.90517 18.9393C2.84048 19.0053 2.79024 19.0841 2.75764 19.1706C2.72503 19.2571 2.71079 19.3495 2.7158 19.4418C2.72081 19.5342 2.74497 19.6244 2.78674 19.7069C3.17753 20.562 3.76988 21.3096 4.51301 21.8855C5.25613 22.4614 6.12785 22.8485 7.05341 23.0136C7.11776 23.0369 7.17336 23.0795 7.21265 23.1356C7.25194 23.1917 7.27302 23.2585 7.27302 23.3269C7.27302 23.3954 7.25194 23.4622 7.21265 23.5182C7.17336 23.5743 7.11776 23.6169 7.05341 23.6402C5.24056 24.39 3.29509 24.7664 1.33341 24.7469C1.1566 24.7115 0.97298 24.7479 0.822951 24.8479C0.672922 24.9479 0.56877 25.1034 0.533408 25.2802C0.498046 25.4571 0.53437 25.6407 0.634389 25.7907C0.734409 25.9407 0.88993 26.0449 1.06674 26.0802C4.46347 27.6912 8.16165 28.5681 11.9201 28.6536C15.226 28.704 18.4731 27.7763 21.2534 25.9869C23.5404 24.4603 25.4141 22.3916 26.7076 19.9651C28.0011 17.5387 28.6741 14.8299 28.6667 12.0802V10.9202C28.6676 10.8234 28.6895 10.728 28.7309 10.6405C28.7723 10.553 28.8324 10.4755 28.9067 10.4136L31.0934 8.58691Z" fill="#808080"/>
</svg>

<svg xmlns="http://www.w3.org/2000/svg" width="32" height="32" fill="none"><path d="M31.093 8.587c.095-.079.166-.182.206-.299s.046-.242.018-.363-.088-.23-.175-.318-.196-.15-.316-.18l-1.053-.267c-.096-.024-.185-.069-.261-.132s-.138-.142-.18-.231-.064-.187-.064-.286.022-.196.065-.285l.587-1.187c.055-.115.077-.243.061-.37s-.067-.246-.148-.345-.189-.171-.311-.21-.252-.042-.375-.009l-2.667.747c-.099.029-.204.034-.306.016s-.198-.06-.281-.123c-1.154-.865-2.558-1.333-4-1.333-1.768 0-3.464.702-4.714 1.953s-1.953 2.946-1.953 4.714v.48c.001.082-.029.161-.083.223s-.129.101-.21.111c-3.747.44-7.333-1.467-11.2-5.92a.68.68 0 0 0-.68-.2c-.109.05-.202.128-.27.227s-.108.214-.117.333c-.534 2.194-.318 4.503.613 6.56.028.055.04.116.035.177s-.026.119-.062.169-.084.088-.141.112-.118.031-.179.022L1.44 12.08c-.106-.017-.215-.008-.317.026s-.194.092-.269.169-.129.171-.16.274-.035.212-.015.317c.115 1.023.459 2.008 1.006 2.88s1.283 1.611 2.154 2.16c.056.027.104.07.137.123s.051.114.051.177-.018.124-.051.177-.081.096-.137.123l-.707.28c-.086.034-.164.086-.228.152s-.115.145-.148.231-.047.179-.042.271.029.183.071.265c.391.855.983 1.603 1.726 2.179s1.615.963 2.54 1.128c.064.023.12.066.159.122s.06.123.06.191-.021.135-.06.191-.095.099-.159.122c-1.813.75-3.758 1.126-5.72 1.107a.68.68 0 0 0-.8.533.68.68 0 0 0 .533.8c3.397 1.611 7.095 2.488 10.853 2.573 3.306.05 6.553-.877 9.333-2.667 2.287-1.527 4.161-3.595 5.454-6.022s1.967-5.135 1.959-7.885v-1.16a.67.67 0 0 1 .064-.28c.041-.087.102-.165.176-.227l2.187-1.827z" fill="gray"/></svg>
